!!!!SEGMENT: pl-kk--kk-i-356--007-001_gabussi-giulio-cesare--sancta-et-immaculata-sancta-et-immaculata.krn
!!!cenid: 17xx:1950
!!!COM: Gabussi, Giulio Cesare
!!!COM-rismID: pe30011203
!!!CDT: ~1555-1611
!!!CNT: Italian
!!!OPR: Sancta et immaculata
!!!OTL: Sancta et immaculata
!!!OMV: 001
!!!PDT:
!!!AGN: Sacred
!!!SMS-siglum: PL-Kk
!!!SMS-shelfmark: Kk.I.356
!!!SMS-shelfwork: 007-001 M
!!!SMS-variant:
!!!SMS-altvar:
!!!NIFC-rismSourceID: 1001142020
!!!NIFC-islandoraID: pl-kk:5933
!!!URL-pdf-islandora: https://repozytorium.nifc.pl/islandora/object/pl-kk%3A5933/datastream/PDF/view
!!!URL-scan: https://polish.musicsources.pl/pl/lokalizacje/galeria/rekopisy/5972 @EN{Scan on Polish Music Sources Website} @PL{Skany w portalu Dziedzictwo Muzyki Polskiej w otwartym dostępie}
!!!ONB-nifc: UWAGA: tylko partia basu. Osobne części motetu: 1. Sancta et immaculata, 2. Benedicta
!!!AIN: 1 empty
!!!key:
**kern	**text
*Iempty	*
*I"Baſso.	*
*I'B	*
*clefF3	*
*k[]	*
*C:	*
*M2/1	*
!LO:TX:a:t=à 5	!
!LO:TX:a:t=6	!
=1-	=1-
00r	.
=2-	=2-
.	.
=3-	=3-
0r	.
=4-	=4-
0G\	San-
=5-	=5-
1A\	-cta
2.F#X/	et
4F#/	Im-
=6-	=6-
*2\right	*
2G\	-ma-
2E/	-cu-
1D/	-la-
=7-	=7-
2G\	-ta.
2G\	Vir-
2E/	-gi-
2Fny/	-ni-
=8-	=8-
2C/	-tas
2c\	et
2G\	im-
2A\	-ma-
=9-	=9-
2D/	-cu-
1G\	-la-
2F/	-ta
=10-	=10-
1E/	vir-
2AA/	-gi-
2A\	-ni-
=11-	=11-
!LO:TX:t=P:problem=kreska pseudotaktowa	!
1G\	-tas
00r	.
=12-	=12-
.	.
=13-	=13-
.	.
1r	.
=14-	=14-
2.A\	et
4A\	im-
2G\	-ma-
!LO:TX:t=P:problem=kreska pseudotaktowa	!
2F#X\	-cu-
!!LO:LB:g=original
=15-	=15-
1G\	-la-
2C/	-ta
2D/	vir-
=16-	=16-
2.E/	-gi-
4F#/	.
2G\	.
2G\	-ni-
=17-	=17-
!LO:TX:t=P:problem=kreska pseudotaktowa	!
1C/	-tas
2r	.
2c\	qui-
=18-	=18-
2c\	-bus
2A\	te
2.c\	lau-
4B\	-di-
=19-	=19-
2A\	-b(us)
2.d\	ef-
4d\	-fe-
2c\	-ra(m)
=20-	=20-
2d\	ne-
2D/	-sci-
!LO:TX:t=P:problem=kreska pseudotaktowa	!
0G\	-o
=21-	=21-
.	.
1r	.
=22-	=22-
2r	.
2G\	qui-
2A\	-b(us)
2A\	te
=23-	=23-
2.c\	lau-
4B\	-di-
2A\	-bus
1D/	ef-
=24-	=24-
.	.
2E/	-fe-
1D/	-ram
!!LO:LB:g=original
=25-	=25-
2G\	ne-
2C/	-sci-
!LO:TX:t=P:problem=kreska pseudotaktowa	!
1G\	-o
=26-	=26-
0r	.
=27-	=27-
1r	.
1G\	qui-
=28-	=28-
2A\	-a
2A\	Quem
2B\	Cae-
2c\	-li
=29-	=29-
2.A\	ca-
4A\	-pe-
2G\	-re
2E/	n(on)
=30-	=30-
1Fny\	po-
2.G\	-te-
4G\	.
=31-	=31-
1C/	-rant
0r	.
=32-	=32-
.	.
1r	.
=33-	=33-
2r	.
1G\	tu-
2F/	-o
=34-	=34-
2E/	gre-
2G\	-mi-
1D/	-o
=35-	=35-
2G\	con-
2C/	-tu-
2.G\	.
4F\	-li-
=36-	=36-
1E/	.
!!LO:TX:t=P:problem:kreska pseudotaktowa	!	!
1D/	-sti
=37-	=37-
2r	.
1C/	tu-
!!LO:LB:g=original
2D/	-o
=38-	=38-
2E/	gre-
2C/	-mi-
!LO:TX:t=P:problem=kreska pseudotaktowa	!
1G\	-o
=39-	=39-
2r	.
1c\	tu-
2B\	-o
=40-	=40-
2A\	gre-
2c\	-mi-
!LO:TX:t=P:problem=kreska pseudotaktowa	!
1G\	-o
=41-	=41-
1r	.
1.G\	con-
=42-	=42-
.	.
2D/	-tu-
1E/	-li-
=43-	=43-
!LO:TX:t=P:problem=kreska pseudotaktowa	!
1D/	-sti
2r	.
1G\	tu-
=44-	=44-
.	.
2A\	-o
2B\	gre-
2G\	-mi-
=45-	=45-
2c\	-o
2.A\	con-
4G\	-tu-
4E/	.
4F/	.
=46-	=46-
2G\	.
2C/	.
1F\	-li-
=47-	=47-
1E/	sti
!LO:TX:t=P:problem=kreska pseudotaktowa	!
1D/	.
=48-	=48-
0r	.
=49-	=49-
1r	.
!LO:TX:t=P:problem=kreska pseudotaktowa	!
!!LO:LB:g=original
2r	.
1G\	tu-
=50-	=50-
.	.
2F\	-o
2E/	gre-
2G\	-mi-
=51-	=51-
1D/	-o
2.E/	con-
4F/	-tu-
=52-	=52-
1G\	.
1C/	.
=53-	=53-
1G\	-li-
1C/	-sti.
=54-	=54-
00G;\	.
=55-	=55-
=-	=-
*-	*-
!!!EED: Leszek Kubiak
!!!EEV: 2021-02-23
!!!ENC: Marcin Jachim
!!!END: 2021-02-06
